svg/regular/bx-cabinet.svg

<svg xmlns="http://www.w3.org/2000/svg" width="24" height="24"><path d="M21 4c0-1.103-.897-2-2-2H5c-1.103 0-2 .897-2 2v16c0 1.103.897 2 2 2h14c1.103 0 2-.897 2-2V4zM5 4h14v7H5V4zm0 16v-7h14.001v7H5z"/><path d="M14 7h-4V6H8v3h8V6h-2zm0 8v1h-4v-1H8v3h8v-3z"/></svg>

<svg xmlns="http://www.w3.org/2000/svg" width="24" height="24" viewBox="0 0 24 24"><path d="M21,4c0-1.103-0.897-2-2-2H5C3.897,2,3,2.897,3,4v16c0,1.103,0.897,2,2,2h14c1.103,0,2-0.897,2-2V4z M5,4h14v7H5V4z M5,20 v-7h14.001v7H5z"/><path d="M14 7L10 7 10 6 8 6 8 9 16 9 16 6 14 6zM14 15L14 16 10 16 10 15 8 15 8 18 16 18 16 15z"/></svg>
